packages/foundations/assets/icons/functional/images/business & payment/generic_card_28.svg

<svg width="28" height="28" viewBox="0 0 28 28" fill="none" xmlns="http://www.w3.org/2000/svg">
<g clip-path="url(#clip0_184_44)">
<path fill-rule="evenodd" clip-rule="evenodd" d="M23.625 5.25C25.075 5.25 26.25 6.453 26.25 7.875V20.125C26.25 21.575 25.047 22.75 23.625 22.75H4.375C2.925 22.75 1.75 21.547 1.75 20.125V7.875C1.75027 7.17889 2.02691 6.51136 2.51914 6.01914C3.01136 5.52691 3.67889 5.25027 4.375 5.25H23.625ZM24.5 12.25H3.5V20.125C3.5 20.563 3.827 21 4.266 21H23.625C24.117 21 24.5 20.59 24.5 20.125V12.25ZM23.625 7H4.375C4.14342 7.00157 3.92177 7.09426 3.75802 7.25802C3.59426 7.42177 3.50157 7.64342 3.5 7.875V10.5H24.5V7.875C24.4984 7.64342 24.4057 7.42177 24.242 7.25802C24.0782 7.09426 23.8566 7.00157 23.625 7Z" fill="#1A1C1F"/>
</g>
<defs>
<clipPath id="clip0_184_44">
<rect width="28" height="28" fill="white"/>
</clipPath>
</defs>
</svg>

<svg xmlns="http://www.w3.org/2000/svg" width="28" height="28" fill="none"><g clip-path="url(#a)"><path fill="#1A1C1F" fill-rule="evenodd" d="M23.625 5.25c1.45 0 2.625 1.203 2.625 2.625v12.25c0 1.45-1.203 2.625-2.625 2.625H4.375c-1.45 0-2.625-1.203-2.625-2.625V7.875A2.626 2.626 0 0 1 4.375 5.25zm.875 7h-21v7.875c0 .438.327.875.766.875h19.359c.492 0 .875-.41.875-.875zM23.625 7H4.375a.88.88 0 0 0-.875.875V10.5h21V7.875A.88.88 0 0 0 23.625 7" clip-rule="evenodd"/></g><defs><clipPath id="a"><path fill="#fff" d="M0 0h28v28H0z"/></clipPath></defs></svg>
